svg/u1f4cd.svg

<svg viewBox="0 0 128 128" xmlns="http://www.w3.org/2000/svg">
  <g>
    <path d="M68.63,59.34l-9.27-1.52c0,0-0.45,38.95-0.06,43.57c0,0.01,2.39,14.08,2.98,21.07 c0.07,0.87,0.8,1.55,1.68,1.55l0,0c0.88,0,1.61-0.67,1.69-1.55l2.99-21.07C68.62,95.04,68.63,59.34,68.63,59.34z" fill="#82AEC0"/>
    <path d="M68.59,59.77c0,0,0.04,5.9,0.04,7.37c0,1.47-1.31,3.83-4.7,3.83s-4.64-2.31-4.64-3.73 s0.01-7.45,0.01-7.45L68.59,59.77z" fill="#2F7889"/>
    <path d="M35.72,32.36c0,0.57,0,1.13,0,1.42c0.85,14.04,11.91,25.52,25.95,26.79 c0.85,0.14,1.56,0.14,2.41,0.14s1.56,0,2.27-0.14c14.04-1.28,25.09-12.48,25.94-26.8c0-0.57,0-1.13,0-1.42 C92.43,16.76,79.67,4,64.07,4S35.72,16.62,35.72,32.36z" fill="#F44336"/>
    <path d="M66.97,8.77c2.66,2.62,1.97,5.66,0.52,8.29c-1.63,2.96-5.42,4.45-11.01,12.51 c-4.19,6.04-13.08,3.28-14.33-1.51c-0.96-3.68-0.19-7.53,1.8-10.71C51.5,5.27,64.31,6.15,66.97,8.77z" fill="#FF7555"/>
  </g>
</svg>

<svg viewBox="0 0 128 128" xmlns="http://www.w3.org/2000/svg">
  <defs/>
  <path d="M68.63,59.34 L59.36,57.82 C59.36,57.82 58.91,96.77 59.3,101.39 C59.3,101.4 61.69,115.47 62.28,122.46 C62.35,123.33 63.08,124.01 63.96,124.01 L63.96,124.01 C64.84,124.01 65.57,123.34 65.65,122.46 L68.64,101.39 C68.62,95.04 68.63,59.34 68.63,59.34 Z" fill="#82AEC0"/>
  <path d="M68.59,59.77 C68.59,59.77 68.63,65.67 68.63,67.14 C68.63,68.61 67.32,70.97 63.93,70.97 C60.54,70.97 59.29,68.66 59.29,67.24 C59.29,65.82 59.3,59.79 59.3,59.79 L68.59,59.77 Z" fill="#2F7889"/>
  <path d="M35.72,32.36 C35.72,32.93 35.72,33.49 35.72,33.78 C36.57,47.82 47.63,59.3 61.67,60.57 C62.52,60.71 63.23,60.71 64.08,60.71 C64.93,60.71 65.64,60.71 66.35,60.57 C80.39,59.29 91.44,48.09 92.29,33.77 C92.29,33.2 92.29,32.64 92.29,32.35 C92.43,16.76 79.67,4 64.07,4 C48.47,4 35.72,16.62 35.72,32.36 Z" fill="#F44336"/>
  <path d="M66.97,8.77 C69.63,11.39 68.94,14.43 67.49,17.06 C65.86,20.02 62.07,21.51 56.48,29.57 C52.29,35.61 43.4,32.85 42.15,28.06 C41.19,24.38 41.96,20.53 43.95,17.35 C51.5,5.27 64.31,6.15 66.97,8.77 Z" fill="#FF7555"/>
</svg>
